X:700
T: Red Hand (The)
C: BB
R: polka
Q: 1/8=300
M: 2/4
L: 1/8
K: G
"G"G>A Bd|"D"cA FA|"G"GB "Am"Ac|"G"Bg "D"d2|"G"g>d BG|"C"cG EC|\
"D"D>E FD | "G"G2 "G"G2 :|
"G"dg fg|"Am"a>g fe|"G"dg Bd|"D7"cB A2|"G"G>A Bd|"C"ce ge|"D"d>B cA|\
"G"G2 "G"G2 :|

%%%%%%%%%%%%%%%%%%%%%%%%%%%%%%%%%%%%%%%%%%%

